X:1
T:Dougal More
T:Dougal More
T:Carl Volti
C:Carl Volti
L:1/8
Q:1/8=128
M:4/4
K:D
V:1 treble 
V:1
|: F>G A<F B>c d<B | c>d e<c d3 f | g>a b>g a>f d>f | g>f e>d (3(cBA) (3(GFE) | F>G A<F B>c d<B | %5
 c>d e<c d3 f | g>a b>g a>f d>f | g<B c>A d3 f | a>b a<f d>e f<d | g>a a<g e3 f | a>b a<f d>e f<d | %11
 B<e g>f e3 f | a>b a<f d>e f<d | g>a a<g e3 f | a>b a<f d>e f<d | (3(cBA) (3(gfe) d4 :| %16

